X: 90
T: Pollonesse #90
M: 3/4
L: 1/16
K: G
Q:120
d4 g2fe d2c2|BdBG AcAF G4|B2G,2 c2G,2 d2B2|edcB B4A4:|
A4 FDFA AGFE|DEFG ABcA d4|d2Bd c2BA GABd c2BA A4 [GG,]4|
G,2B2 G,2B2 G,2B2|BdBG AcAF G4|C2e2 C2e2 C2e2|gdcB B4 A4|
A4 FAFD AGFE|DEFG ABcA B4|d2Bd c2BA GABc|c2BA A4 [GG,]4:|
